X:1
T:RVW2/1/131 Shannon Side
T:RVW2/1/131 Shannon Side
T:Mr. W. Colcombe, Weobley, Herefordshire, July 1909 [5 of 5]
T:Transcribed by Simon Furey and Lewis Jones
C:Transcribed by Simon Furey and Lewis Jones
L:1/8
Q:1/4=100
M:6/8
K:F
V:1 treble 
V:1
"^(Editorialsuggestion)" d2 c | B2 A G2 G | d2 e f2 A | c2 B G2 G | G3 z z G |: B2 cdef | g3 f2 d | %7
 c2 c f2 e |"^1" d3 z z G :|"^2" d3 z fe || d2 c d2 G |"^(a)" c2 d f2 A | c2 B G2 G | G6 | z2 z || %15
 d2 c | B2 A G2 G | d2 e f2 A | c2 B G2 G | G3 z z G |: B2 c def | g3 f2 d | c2 c f2 e | %23
"^1" d3 z z G :|"^2" d3 z fe || d2 c d2 G |"^(a) var." d f2- f2 A | c2 B G2 G | G6 | z2 z |] x6 | %31

